icons/download-16.svg

<svg width="16" height="16" viewBox="0 0 16 16" fill="none" xmlns="http://www.w3.org/2000/svg">
<path fill-rule="evenodd" clip-rule="evenodd" d="M2.75 14C1.7835 14 1 13.2165 1 12.25L1 9.74996C1 9.33575 1.33579 8.99996 1.75 8.99996C2.16421 8.99996 2.5 9.33575 2.5 9.74996L2.5 12.25C2.5 12.388 2.61193 12.5 2.75 12.5H13.25C13.3881 12.5 13.5 12.388 13.5 12.25V9.74996C13.5 9.33575 13.8358 8.99996 14.25 8.99996C14.6642 8.99996 15 9.33575 15 9.74996V12.25C15 13.2165 14.2165 14 13.25 14H2.75Z" fill="black"/>
<path d="M7.25 7.6893L7.25 1.99999C7.25 1.58577 7.58578 1.24998 8 1.24998C8.41421 1.24998 8.75 1.58577 8.75 1.99998L8.75 7.6893L10.7197 5.71963C11.0126 5.42674 11.4874 5.42674 11.7803 5.71963C12.0732 6.01253 12.0732 6.4874 11.7803 6.78029L8.53033 10.0303C8.23744 10.3232 7.76256 10.3232 7.46967 10.0303L4.21967 6.78029C3.92678 6.4874 3.92678 6.01252 4.21967 5.71963C4.51256 5.42674 4.98744 5.42674 5.28033 5.71963L7.25 7.6893Z" fill="black"/>
</svg>

<svg xmlns="http://www.w3.org/2000/svg" width="16" height="16" viewBox="0 0 16 16"><path d="M2.75 14A1.75 1.75 0 0 1 1 12.25v-2.5a.75.75 0 0 1 1.5 0v2.5c0 .138.112.25.25.25h10.5a.25.25 0 0 0 .25-.25v-2.5a.75.75 0 0 1 1.5 0v2.5A1.75 1.75 0 0 1 13.25 14Z"/><path d="M7.25 7.689V2a.75.75 0 0 1 1.5 0v5.689l1.97-1.969a.749.749 0 1 1 1.06 1.06l-3.25 3.25a.749.749 0 0 1-1.06 0L4.22 6.78a.749.749 0 1 1 1.06-1.06l1.97 1.969Z"/></svg>
